X:428
%%topmargin 3cm
T:The Bonnie Lass O' Bonaccord
C:J. Scott Skinner
O:Scotland
B:Keith Norman MacDonald : "The Skye collection of the best reels & strathspeys extant" : 1887
Z:Ralph Palmer
R:Strathspey
M:C
L:1/8
K:A
"Slow Strathspey"E | !4!LA>B {AB}c>B A.A,.C.E | "2nd pos."A{BAG}A/f/ e/c/{/c}B/A/ {/A}(tB2 B)c | "1st pos."A>B {AB}c>B .A.C.E.=G | (LF/D/F/A/) (LG/E/F/B/) !2!(tA2 A) :|
{efg}a>c d>f eA a(g/f/) | eA (f/e/)(d/c/) {/c}(tB2 B)((3e/f/g/) | a>c (df) (e/A/c/A/) !4!!0!(a=G) | (LF/D/F/A/) (LG/E/G/B/) !2!(tA2 A) ((3e/f/g/) |
a>c .d.f .e.A a(g/f/) | eA (f/e/)(d/c/) {/c}(tB2 B)>c | (A,/!1!C/!2!E/!2!A/) !4!c>B AC HE>=G | (LFDFA) (LGEGB) (tA2 A) ||
|: E | {/B}(A/G/A/B/) {AB}(c/B/A/G/) (A/"7 up"A,/B,/C/ D/E/F/G/) | {/B}"3rd pos."(A/G/)(A/f/) (e/c/){/c}(B/A/) {/A}!3!(tB2 B>)c | (LA/G/A/B/) (c/B/A/G/) (A/"7 up"A,/B,/C/ D/E/F/=G/) |
(LF/C/F/A/) (LG/E/G/B/) (tA2 A) :| {efg}.a/.g/.f/.e/ .d/.c/.B/.A/ .e/.A/.c/.A/ !4!!0!a/(G/A/).B/ | c/A/e/A/ a/e/d/c/ {/c}(tB2 B) ((3e/f/g/) |
.a/.g/.f/.e/ .d/.c/.B/.A/ e/A/c/A/ !4!!0!a/(G/A/=G/) (LF/D/F/A/) G/E/G/B/ (tA2 A) ((3e/f/g/ | a/).g/.f/.e/ .d/.c/.B/.A/ c/A/e/A/ Lag/f/ |
e/(G/A/a/) f/e/.d/.c/ {/c}(tB2 B>)c "x"| (!1!A,/!1!C/!2!E/!3!A/) "_rall."!4!c>B AC HE>=G "x"| "3rd string"(LF/D/F/A/ G/f/e/G/) {/G}(tA2 A) |]
| x x x x x x x x x  "x"| (A,/C/E/A/ c/e/a/g/) (a/e/c/A/ G/A/E/=G/) "x"| x x x x x x x x x |
